src/assets/svgs/facebook-footer.svg

<svg xmlns="http://www.w3.org/2000/svg" width="12" height="12" viewBox="0 0 12 12" fill="none">
<path d="M8.60685 6.66413L8.91781 4.61655H6.9726V3.2884C6.9726 2.72808 7.24384 2.1816 8.11507 2.1816H9V0.438398C9 0.438398 8.19726 0.300049 7.43014 0.300049C5.8274 0.300049 4.78082 1.28095 4.78082 3.05597V4.61655H3V6.66413H4.78082V11.6143C5.13836 11.671 5.50411 11.7 5.87671 11.7C6.24932 11.7 6.61507 11.671 6.9726 11.6143V6.66413H8.60685Z" fill="#BABABA"/>
</svg>

<svg xmlns="http://www.w3.org/2000/svg" width="12" height="12" fill="none"><path d="m8.607 6.664.31-2.047H6.974V3.288c0-.56.27-1.106 1.142-1.106H9V.438S8.197.3 7.43.3c-1.603 0-2.65.981-2.65 2.756v1.56H3v2.048h1.78v4.95a6.99 6.99 0 0 0 2.193 0v-4.95h1.634Z" fill="#BABABA"/></svg>
